src/images/svg/payment-methods/payment-mastercard.svg

<svg width="128" height="80" viewBox="0 0 128 80" fill="none" xmlns="http://www.w3.org/2000/svg">
<path d="M38.3865 70.8135V66.5694C38.3865 64.9762 37.4577 63.9186 35.8712 63.905C34.9394 63.8448 34.0513 64.3072 33.5661 65.105C33.1261 64.3324 32.2919 63.8695 31.4034 63.905C30.6181 63.8591 29.8682 64.2366 29.4373 64.8948V64.0745H28.1221V70.8135H29.478V66.983C29.4195 66.5167 29.5699 66.0484 29.8888 65.7033C30.2078 65.3582 30.6628 65.1715 31.1322 65.1932C32.0746 65.1932 32.6102 65.8304 32.6102 66.9694V70.8474H33.9661V66.983C33.9125 66.5177 34.0645 66.0522 34.3824 65.7083C34.7002 65.3644 35.1523 65.1762 35.6204 65.1932C36.5966 65.1932 37.1119 65.8304 37.1119 66.9694V70.8474L38.3865 70.8135ZM59.7085 64.0745H57.3289V62.0406H55.9729V64.0745H54.617V65.3016H55.9729V68.4881C55.9729 70.0474 56.5085 70.983 58.1899 70.983C58.8221 70.9844 59.4413 70.8031 59.9729 70.4609L59.5594 69.2609C59.1823 69.4964 58.7495 69.6274 58.3051 69.6406C57.6272 69.6406 57.3017 69.1932 57.3017 68.5152V65.3016H59.6814L59.7085 64.0745ZM71.8509 63.905C71.132 63.8954 70.4636 64.2736 70.1017 64.8948V64.0745H68.7458V70.8135H70.1017V67.0169C70.1017 65.905 70.617 65.1864 71.5526 65.1864C71.8571 65.1813 72.1595 65.239 72.4407 65.3559L72.8814 64.0881C72.5516 63.9658 72.2026 63.9038 71.8509 63.905ZM53.4983 64.583C52.6946 64.0977 51.765 63.8618 50.8272 63.905C49.1729 63.905 48.1627 64.7118 48.1627 66.0474C48.1627 67.1457 48.9017 67.8101 50.3661 68.0203L51.0441 68.122C51.8305 68.2304 52.2509 68.5152 52.2509 68.8948C52.2509 69.4169 51.6746 69.7559 50.7051 69.7559C49.9227 69.7913 49.1527 69.5514 48.5289 69.0779L47.8509 70.1355C48.6789 70.7202 49.6713 71.0264 50.6848 71.0101C52.5763 71.0101 53.6136 70.1084 53.6136 68.8203C53.6136 67.6406 52.8204 67.0304 51.3831 66.7864L50.7051 66.6915C50.0882 66.6033 49.539 66.4067 49.539 65.9593C49.539 65.5118 50.0611 65.1254 50.8407 65.1254C51.5569 65.1398 52.2573 65.3383 52.8746 65.7016L53.4983 64.583ZM73.3424 67.4169C73.2782 68.3558 73.6161 69.2778 74.2718 69.953C74.9275 70.6281 75.8393 70.9927 76.7797 70.9559C77.6378 70.9947 78.4786 70.7064 79.1322 70.1491L78.4543 69.0915C77.9693 69.4807 77.3676 69.6956 76.7458 69.7016C75.5799 69.5744 74.6968 68.5897 74.6968 67.4169C74.6968 66.244 75.5799 65.2593 76.7458 65.1321C77.3663 65.1389 77.9671 65.3511 78.4543 65.7355L79.1322 64.6847C78.0779 63.8157 76.6175 63.6312 75.3802 64.2107C74.1429 64.7903 73.3498 66.0303 73.3424 67.3965V67.4169ZM64.1492 63.8779C62.2305 63.8779 60.9153 65.3016 60.9153 67.4033C60.9153 69.505 62.2712 70.9559 64.2441 70.9559C65.2359 70.9963 66.2058 70.6568 66.956 70.0067L66.278 69.0101C65.7401 69.4442 65.0709 69.6831 64.3797 69.6881C63.3427 69.7437 62.446 68.9725 62.3458 67.9389H67.2339C67.2339 67.7559 67.2339 67.5728 67.2339 67.3762C67.2136 65.3287 65.9797 63.905 64.1492 63.905V63.8779ZM64.1492 65.1321C64.6063 65.1229 65.0476 65.2995 65.3722 65.6215C65.6967 65.9435 65.8768 66.3834 65.8712 66.8406H62.3119C62.3594 65.882 63.1625 65.136 64.1221 65.1593L64.1492 65.1321ZM46.4339 67.4169V64.0271H45.0916V64.8474C44.5802 64.2137 43.7963 63.8634 42.9831 63.905C41.1526 63.905 39.756 65.383 39.756 67.444C39.756 69.505 41.1526 70.983 42.9831 70.983C43.8093 71.0178 44.6009 70.6486 45.1051 69.9932V70.8135H46.4204L46.4339 67.4169ZM41.139 67.4169C41.0842 66.8392 41.2723 66.2648 41.6582 65.8314C42.044 65.3979 42.5928 65.1446 43.1729 65.1321C44.3729 65.1321 45.1661 66.1084 45.1661 67.4169C45.1661 68.7254 44.3729 69.7016 43.1729 69.7016C42.5932 69.696 42.0419 69.4496 41.651 69.0214C41.2601 68.5933 41.0648 68.0219 41.1119 67.444L41.139 67.4169ZM91.6407 63.8779C90.9122 63.8583 90.2311 64.2379 89.8644 64.8677V64.0474H88.5628V70.7864H89.878V66.9898C89.878 65.8779 90.4 65.1593 91.3288 65.1593C91.6334 65.1541 91.9357 65.2118 92.217 65.3287L92.6577 64.0609C92.3219 63.9463 91.9682 63.8935 91.6136 63.905L91.6407 63.8779ZM86.6102 67.4169V64.0271H85.2678V64.8474C84.7614 64.1947 83.9713 63.8262 83.1458 63.8576C81.3085 63.8576 79.9119 65.3355 79.9119 67.3965C79.9119 69.4576 81.3085 70.9355 83.1458 70.9355C83.9713 70.9669 84.7614 70.5984 85.2678 69.9457V70.766H86.5831L86.6102 67.4169ZM81.3085 67.4169C81.2537 66.8392 81.4418 66.2648 81.8277 65.8314C82.2135 65.3979 82.7623 65.1446 83.3424 65.1321C84.5492 65.1321 85.3763 66.1084 85.3763 67.4169C85.3763 68.7254 84.5831 69.7016 83.3424 69.7016C82.7627 69.696 82.2114 69.4496 81.8205 69.0214C81.4296 68.5933 81.2343 68.0219 81.2814 67.444L81.3085 67.4169ZM99.817 67.4169V61.3152H98.5017V64.8406C97.9953 64.1879 97.2052 63.8194 96.3797 63.8508C94.5424 63.8508 93.1458 65.3287 93.1458 67.3898C93.1458 69.4508 94.5424 70.9287 96.3797 70.9287C97.2052 70.9601 97.9953 70.5916 98.5017 69.9389V70.7593H99.817V67.4169ZM94.5153 67.4169C94.4605 66.8392 94.6486 66.2648 95.0344 65.8314C95.4203 65.3979 95.9691 65.1446 96.5492 65.1321C97.756 65.1321 98.5831 66.1084 98.5831 67.4169C98.5831 68.7254 97.7899 69.7016 96.5492 69.7016C95.973 69.6904 95.4271 69.4416 95.0406 69.0141C94.6542 68.5866 94.4616 68.0184 94.5085 67.444L94.5153 67.4169Z" fill="black"/>
<circle cx="49" cy="33" r="25" fill="#EB001B"/>
<circle cx="79" cy="33" r="25" fill="#F79E1B"/>
<path fill-rule="evenodd" clip-rule="evenodd" d="M64 53.0017C70.0722 48.4407 74 41.179 74 32.9999C74 24.8208 70.0722 17.5591 64 12.998C57.9278 17.5591 54 24.8208 54 32.9999C54 41.179 57.9278 48.4407 64 53.0017Z" fill="#FF5F00"/>
</svg>

<svg width="128" height="80" fill="none" xmlns="http://www.w3.org/2000/svg"><path d="M38.386 70.814V66.57c0-1.594-.928-2.651-2.515-2.665a2.508 2.508 0 0 0-2.305 1.2 2.38 2.38 0 0 0-2.163-1.2 2.197 2.197 0 0 0-1.966.99v-.82h-1.315v6.739h1.356v-3.831a1.593 1.593 0 0 1 1.654-1.79c.943 0 1.478.638 1.478 1.776v3.879h1.356v-3.865a1.607 1.607 0 0 1 1.654-1.79c.977 0 1.492.638 1.492 1.776v3.879l1.274-.034zm21.322-6.74h-2.38v-2.033h-1.355v2.034h-1.356v1.227h1.356v3.186c0 1.56.535 2.495 2.217 2.495a3.282 3.282 0 0 0 1.783-.522l-.414-1.2c-.377.236-.81.367-1.254.38-.678 0-1.003-.448-1.003-1.126v-3.213h2.38l.026-1.227zm12.143-.169a1.993 1.993 0 0 0-1.75.99v-.82h-1.355v6.739h1.356v-3.797c0-1.112.515-1.83 1.45-1.83.305-.006.607.052.889.169l.44-1.268a2.937 2.937 0 0 0-1.03-.183zm-18.353.678a4.746 4.746 0 0 0-2.67-.678c-1.655 0-2.665.807-2.665 2.142 0 1.099.739 1.763 2.203 1.973l.678.102c.787.109 1.207.393 1.207.773 0 .522-.576.86-1.546.86a3.35 3.35 0 0 1-2.176-.677l-.678 1.058a4.78 4.78 0 0 0 2.834.874c1.891 0 2.929-.901 2.929-2.19 0-1.18-.794-1.79-2.23-2.034l-.679-.094c-.617-.089-1.166-.285-1.166-.733 0-.447.522-.834 1.302-.834a4.176 4.176 0 0 1 2.034.577l.623-1.119zm19.844 2.834a3.315 3.315 0 0 0 3.438 3.539 3.39 3.39 0 0 0 2.352-.807l-.678-1.058a2.773 2.773 0 0 1-1.708.61 2.298 2.298 0 0 1 0-4.569c.62.007 1.221.22 1.708.604l.678-1.051a3.539 3.539 0 0 0-5.79 2.712v.02zm-9.193-3.539c-1.919 0-3.234 1.424-3.234 3.525 0 2.102 1.356 3.553 3.33 3.553a3.898 3.898 0 0 0 2.711-.95l-.678-.996a3.058 3.058 0 0 1-1.898.678 1.939 1.939 0 0 1-2.034-1.749h4.888v-.563c-.02-2.047-1.254-3.47-3.085-3.47v-.028zm0 1.254a1.688 1.688 0 0 1 1.722 1.709h-3.56a1.77 1.77 0 0 1 1.811-1.682l.027-.027zm-17.715 2.285v-3.39h-1.342v.82a2.542 2.542 0 0 0-2.109-.942c-1.83 0-3.227 1.478-3.227 3.54 0 2.06 1.397 3.538 3.227 3.538a2.542 2.542 0 0 0 2.122-.99v.82h1.315l.014-3.396zm-5.295 0a2.088 2.088 0 0 1 2.034-2.285c1.2 0 1.993.977 1.993 2.285 0 1.308-.793 2.285-1.993 2.285a2.088 2.088 0 0 1-2.061-2.258l.027-.027zm50.502-3.539c-.729-.02-1.41.36-1.777.99v-.82h-1.301v6.738h1.315V66.99c0-1.112.522-1.83 1.45-1.83.305-.006.608.052.889.169l.44-1.268a2.935 2.935 0 0 0-1.043-.156l.027-.027zm-5.03 3.539v-3.39h-1.343v.82a2.563 2.563 0 0 0-2.122-.99c-1.838 0-3.234 1.479-3.234 3.54 0 2.06 1.396 3.539 3.234 3.539a2.563 2.563 0 0 0 2.122-.99v.82h1.315l.027-3.35zm-5.303 0a2.088 2.088 0 0 1 2.034-2.285c1.207 0 2.034.977 2.034 2.285 0 1.308-.793 2.285-2.034 2.285a2.088 2.088 0 0 1-2.06-2.258l.026-.027zm18.509 0v-6.102h-1.315v3.526a2.563 2.563 0 0 0-2.122-.99c-1.838 0-3.234 1.478-3.234 3.539 0 2.06 1.396 3.539 3.234 3.539a2.563 2.563 0 0 0 2.122-.99v.82h1.315v-3.342zm-5.302 0a2.088 2.088 0 0 1 2.034-2.285c1.207 0 2.034.977 2.034 2.285 0 1.308-.793 2.285-2.034 2.285a2.088 2.088 0 0 1-2.04-2.258l.006-.027z" fill="#000"/><circle cx="49" cy="33" r="25" fill="#EB001B"/><circle cx="79" cy="33" r="25" fill="#F79E1B"/><path fill-rule="evenodd" clip-rule="evenodd" d="M64 53.002C70.072 48.44 74 41.179 74 33c0-8.18-3.928-15.44-10-20.002C57.928 17.56 54 24.821 54 33c0 8.18 3.928 15.44 10 20.002z" fill="#FF5F00"/></svg>
